icons/inbox-arrow-left.svg

<svg xmlns="http://www.w3.org/2000/svg" width="24" height="24" viewBox="0 0 24 24">
  <path d="M6,16 L6.11662113,16.0067277 C6.61395981,16.0644928 7,16.4871642 7,17 C7,18.5976809 8.24891996,19.9036609 9.82372721,19.9949073 L10,20 L14,20 L14.1762728,19.9949073 C15.6927538,19.9070404 16.9070404,18.6927538 16.9949073,17.1762728 L17,17 L17.0067277,16.8833789 C17.0600494,16.424297 17.424297,16.0600494 17.8833789,16.0067277 L18,16 L22,16 L22,20 C22,21.1045695 21.1045695,22 20,22 L4,22 C2.8954305,22 2,21.1045695 2,20 L2,16 L6,16 Z M20,2 C21.1045695,2 22,2.8954305 22,4 L22,14 L18,14 L17.8237272,14.0050927 C16.24892,14.0963391 15,15.4023191 15,17 C15,17.5128358 14.6139598,17.9355072 14.1166211,17.9932723 L14,18 L10,18 L9.88337887,17.9932723 C9.42429701,17.9399506 9.06004937,17.575703 9.00672773,17.1166211 L9,17 L8.99490731,16.8237272 C8.90704038,15.3072462 7.69275384,14.0929596 6.17627279,14.0050927 L6,14 L2,14 L2,4 C2,2.8954305 2.8954305,2 4,2 L20,2 Z M8.01101934,9.14896122 C8.01362808,9.16594901 8.01670217,9.18337526 8.02024007,9.20072576 C8.0246398,9.22274608 8.02983363,9.24443648 8.03572097,9.26583961 C8.04009773,9.28146328 8.04472872,9.29685134 8.04973809,9.31214252 C8.05612249,9.33179768 8.06331574,9.3515792 8.07110396,9.37105852 L8.09367336,9.42322155 L8.09367336,9.42322155 C8.10337664,9.4438914 8.11379392,9.46429395 8.12487577,9.48427695 C8.13149883,9.49639444 8.13860692,9.50861311 8.14599545,9.52070875 C8.1617187,9.54627495 8.17849009,9.57113069 8.19631351,9.5951593 C8.20071786,9.60120864 8.20517454,9.60707334 8.20970461,9.61289944 C8.21507113,9.61966276 8.2173721,9.62256244 8.21968877,9.62544899 L8.29289322,9.70710678 L11.2928932,12.7071068 C11.6834175,13.0976311 12.3165825,13.0976311 12.7071068,12.7071068 C13.0675907,12.3466228 13.0953203,11.7793918 12.7902954,11.3871006 L12.7071068,11.2928932 L11.415,10 L15,10 C15.5522847,10 16,9.55228475 16,9 C16,8.48716416 15.6139598,8.06449284 15.1166211,8.00672773 L15,8 L11.415,8 L12.7071068,6.70710678 C13.0976311,6.31658249 13.0976311,5.68341751 12.7071068,5.29289322 C12.3466228,4.93240926 11.7793918,4.90467972 11.3871006,5.20970461 L11.2928932,5.29289322 L8.29289322,8.29289322 L8.24220802,8.34743396 L8.24220802,8.34743396 L8.232,8.359 L8.21968877,8.37455101 L8.216,8.378 L8.22,8.374 L8.19633458,8.40469339 L8.19633458,8.40469339 C8.17849009,8.42886931 8.1617187,8.45372505 8.14606743,8.47933981 L8.12467117,8.5159379 L8.12467117,8.5159379 C8.11379392,8.53570605 8.10337664,8.5561086 8.09365378,8.57690085 L8.07122549,8.62866398 L8.07122549,8.62866398 C8.06331574,8.6484208 8.05612249,8.66820232 8.04954668,8.68826359 C8.04472872,8.70314866 8.04009773,8.71853672 8.03584514,8.73400703 C8.02983363,8.75556352 8.0246398,8.77725392 8.02016515,8.7992059 C8.01670217,8.81662474 8.01362808,8.83405099 8.0110178,8.85153313 L8.00399798,8.90996805 L8.00399798,8.90996805 C8.00307004,8.92081308 8.00232561,8.93088722 8.0017331,8.94096861 L8.00018018,8.98082404 L8.00004511,8.99040127 L8.00004511,8.99040127 L8,9 L8,9.018 L8.002,9.059 L8.001,9.059 L8.002,9.075 L8.01101934,9.14896122 L8.01101934,9.14896122 Z"/>
</svg>

<svg xmlns="http://www.w3.org/2000/svg" viewBox="0 0 24 24">
  <path d="M6 16h.12A1 1 0 0 1 7 17a3 3 0 0 0 2.82 3h4.36a3 3 0 0 0 2.81-2.82L17 17v-.12a1 1 0 0 1 .88-.87L18 16h4v4a2 2 0 0 1-2 2H4a2 2 0 0 1-2-2v-4h4zM20 2a2 2 0 0 1 2 2v10h-4.18A3 3 0 0 0 15 17a1 1 0 0 1-.88 1H9.88a1 1 0 0 1-.87-.88L9 17v-.18a3 3 0 0 0-2.82-2.81L6 14H2V4c0-1.1.9-2 2-2h16zM8.01 9.15a1.08 1.08 0 0 0 .06.22l.02.05a1.02 1.02 0 0 0 .13.2l.07.09 3 3a1 1 0 0 0 1.5-1.32l-.08-.1L11.4 10H15a1 1 0 0 0 .12-2H11.4l1.3-1.3a1 1 0 0 0-1.32-1.49l-.1.08-3 3-.05.06-.02.02-.02.03-.05.08-.03.04-.03.06-.02.05a.99.99 0 0 0-.06.22v.22l.01.08z"/>
</svg>
